src/pages/elements/pictograms/images/10_Backgrounds_7_dont.svg

<?xml version="1.0" encoding="UTF-8"?>
<svg width="288px" height="288px" viewBox="0 0 288 288" version="1.1" xmlns="http://www.w3.org/2000/svg" xmlns:xlink="http://www.w3.org/1999/xlink">
    <!-- Generator: Sketch 52.5 (67469) - http://www.bohemiancoding.com/sketch -->
    <title>Artboard Copy 78</title>
    <desc>Created with Sketch.</desc>
    <defs>
        <linearGradient x1="6.95652174%" y1="109.638554%" x2="93.0434783%" y2="-9.63855422%" id="linearGradient-1">
            <stop stop-color="#FFCFE1" offset="0%"></stop>
            <stop stop-color="#C9DEFF" offset="100%"></stop>
        </linearGradient>
        <path d="M29.337563,31.407563 L29.337563,66.770063 C12.139313,77.229313 0.587563025,96.095063 0.587563025,117.657563 C0.587563025,150.501563 27.313563,177.227563 60.157563,177.227563 C93.001563,177.227563 119.727563,150.501563 119.727563,117.657563 C119.727563,96.095063 108.175813,77.229313 90.977563,66.770063 L90.977563,31.407563 C90.977563,14.416313 77.154563,0.581813025 60.157563,0.581813025 C43.166313,0.581813025 29.337563,14.416313 29.337563,31.407563 Z M33.477563,31.407563 C33.477563,16.693313 45.443313,4.72756303 60.157563,4.72756303 C74.871813,4.72756303 86.837563,16.693313 86.837563,31.407563 L86.837563,64.470063 C78.799063,60.422063 69.754313,58.081813 60.157563,58.081813 C50.560813,58.081813 41.516063,60.422063 33.477563,64.470063 L33.477563,31.407563 Z M4.72756303,117.657563 C4.72756303,87.096313 29.596313,62.227563 60.157563,62.227563 C90.724563,62.227563 115.587563,87.096313 115.587563,117.657563 C115.587563,148.224563 90.724563,173.081813 60.157563,173.081813 C29.596313,173.081813 4.72756303,148.224563 4.72756303,117.657563 Z M51.532563,114.782563 C51.532563,118.824813 54.327063,122.200063 58.087563,123.125813 L58.087563,134.907563 C58.087563,136.051813 59.013313,136.983313 60.157563,136.983313 C61.301813,136.983313 62.227563,136.051813 62.227563,134.907563 L62.227563,123.125813 C65.988063,122.200063 68.782563,118.824813 68.782563,114.782563 C68.782563,110.021563 64.918563,106.157563 60.157563,106.157563 C55.396563,106.157563 51.532563,110.021563 51.532563,114.782563 Z" id="path-2"></path>
        <linearGradient x1="5.0902611%" y1="83.6570893%" x2="94.9097384%" y2="23.0776951%" id="linearGradient-4">
            <stop stop-color="#0062FF" offset="0%"></stop>
            <stop stop-color="#BB8EFF" offset="100%"></stop>
        </linearGradient>
    </defs>
    <g id="Artboard-Copy-78" stroke="none" stroke-width="1" fill="none" fill-rule="evenodd">
        <rect id="Rectangle-3-Copy-45" fill="#FFFFFF" x="0" y="0" width="288" height="288"></rect>
        <polygon id="Fill-1-Copy-6" fill="url(#linearGradient-1)" points="0 288 288 288 288 0 0 0"></polygon>
        <g id="Group-5-Copy" transform="translate(52.000000, 52.000000)">
            <polygon id="Fill-1" points="0 184 184 184 184 0 0 0"></polygon>
            <g id="Group-4" transform="translate(31.842437, 3.092437)">
                <mask id="mask-3" fill="white">
                    <use xlink:href="#path-2"></use>
                </mask>
                <g id="Clip-3"></g>
                <path d="M29.337563,31.407563 L29.337563,66.770063 C12.139313,77.229313 0.587563025,96.095063 0.587563025,117.657563 C0.587563025,150.501563 27.313563,177.227563 60.157563,177.227563 C93.001563,177.227563 119.727563,150.501563 119.727563,117.657563 C119.727563,96.095063 108.175813,77.229313 90.977563,66.770063 L90.977563,31.407563 C90.977563,14.416313 77.154563,0.581813025 60.157563,0.581813025 C43.166313,0.581813025 29.337563,14.416313 29.337563,31.407563 Z M33.477563,31.407563 C33.477563,16.693313 45.443313,4.72756303 60.157563,4.72756303 C74.871813,4.72756303 86.837563,16.693313 86.837563,31.407563 L86.837563,64.470063 C78.799063,60.422063 69.754313,58.081813 60.157563,58.081813 C50.560813,58.081813 41.516063,60.422063 33.477563,64.470063 L33.477563,31.407563 Z M4.72756303,117.657563 C4.72756303,87.096313 29.596313,62.227563 60.157563,62.227563 C90.724563,62.227563 115.587563,87.096313 115.587563,117.657563 C115.587563,148.224563 90.724563,173.081813 60.157563,173.081813 C29.596313,173.081813 4.72756303,148.224563 4.72756303,117.657563 Z M51.532563,114.782563 C51.532563,118.824813 54.327063,122.200063 58.087563,123.125813 L58.087563,134.907563 C58.087563,136.051813 59.013313,136.983313 60.157563,136.983313 C61.301813,136.983313 62.227563,136.051813 62.227563,134.907563 L62.227563,123.125813 C65.988063,122.200063 68.782563,118.824813 68.782563,114.782563 C68.782563,110.021563 64.918563,106.157563 60.157563,106.157563 C55.396563,106.157563 51.532563,110.021563 51.532563,114.782563 Z" id="Fill-2" fill="url(#linearGradient-4)" mask="url(#mask-3)"></path>
            </g>
        </g>
    </g>
</svg>

<svg xmlns="http://www.w3.org/2000/svg" xmlns:xlink="http://www.w3.org/1999/xlink" viewBox="0 0 288 288"><defs><linearGradient x1="6.957%" y1="109.639%" x2="93.043%" y2="-9.639%" id="a"><stop stop-color="#FFCFE1" offset="0%"/><stop stop-color="#C9DEFF" offset="100%"/></linearGradient><linearGradient x1="5.09%" y1="83.657%" x2="94.91%" y2="23.078%" id="c"><stop stop-color="#0062FF" offset="0%"/><stop stop-color="#BB8EFF" offset="100%"/></linearGradient><path d="M29.338 31.408V66.77C12.139 77.23.588 96.095.588 117.658c0 32.844 26.726 59.57 59.57 59.57s59.57-26.726 59.57-59.57c0-21.563-11.552-40.429-28.75-50.888V31.408c0-16.992-13.823-30.826-30.82-30.826-16.992 0-30.82 13.834-30.82 30.826zm4.14 0c0-14.715 11.965-26.68 26.68-26.68 14.714 0 26.68 11.965 26.68 26.68V64.47c-8.039-4.048-17.084-6.388-26.68-6.388-9.597 0-18.642 2.34-26.68 6.388V31.408zm-28.75 86.25c0-30.562 24.868-55.43 55.43-55.43 30.567 0 55.43 24.868 55.43 55.43 0 30.567-24.863 55.424-55.43 55.424-30.562 0-55.43-24.857-55.43-55.424zm46.805-2.875c0 4.042 2.794 7.417 6.555 8.343v11.782c0 1.144.925 2.075 2.07 2.075 1.144 0 2.07-.931 2.07-2.075v-11.782c3.76-.926 6.555-4.301 6.555-8.343a8.628 8.628 0 00-8.625-8.625 8.628 8.628 0 00-8.625 8.625z" id="b"/></defs><g fill="none" fill-rule="evenodd"><path fill="#FFF" d="M0 0h288v288H0z"/><path fill="url(#a)" d="M0 288h288V0H0z"/><path d="M52 236h184V52H52z"/><g transform="translate(83.842 55.092)"><mask id="d" fill="#fff"><use xlink:href="#b"/></mask><path d="M29.338 31.408V66.77C12.139 77.23.588 96.095.588 117.658c0 32.844 26.726 59.57 59.57 59.57s59.57-26.726 59.57-59.57c0-21.563-11.552-40.429-28.75-50.888V31.408c0-16.992-13.823-30.826-30.82-30.826-16.992 0-30.82 13.834-30.82 30.826zm4.14 0c0-14.715 11.965-26.68 26.68-26.68 14.714 0 26.68 11.965 26.68 26.68V64.47c-8.039-4.048-17.084-6.388-26.68-6.388-9.597 0-18.642 2.34-26.68 6.388V31.408zm-28.75 86.25c0-30.562 24.868-55.43 55.43-55.43 30.567 0 55.43 24.868 55.43 55.43 0 30.567-24.863 55.424-55.43 55.424-30.562 0-55.43-24.857-55.43-55.424zm46.805-2.875c0 4.042 2.794 7.417 6.555 8.343v11.782c0 1.144.925 2.075 2.07 2.075 1.144 0 2.07-.931 2.07-2.075v-11.782c3.76-.926 6.555-4.301 6.555-8.343a8.628 8.628 0 00-8.625-8.625 8.628 8.628 0 00-8.625 8.625z" fill="url(#c)" mask="url(#d)"/></g></g></svg>
